**kern	**text	**kern	**text	**kern	**text	**kern	**text	**kern	**text	**cdata-harm
*staff5	*staff5	*staff4	*staff4	*staff3	*staff3	*staff2	*staff2	*staff1	*staff1	*
=1-	=1-	=1-	=1-	=1-	=1-	=1-	=1-	=1-	=1-	=1-
*clefF4	*	*clefGv2	*	*clefGv2	*	*clefG2	*	*clefG2	*	*
*k[b-]	*	*k[b-]	*	*k[b-]	*	*k[b-]	*	*k[b-]	*	*
*M4/4	*	*M4/4	*	*M4/4	*	*M4/4	*	*M4/4	*	*
1r	.	1r	.	1r	.	2r	.	1dd\	Chi	<CON_5v
.	.	.	.	.	.	2g/	Chi	.	.	.
=2	=2	=2	=2	=2	=2	=2	=2	=2	=2	.
1r	.	2r	.	2r	.	2g/	a-	2gg\	a-	.
.	.	2d\	Chi	4r	.	4a/	ma	4ff\	ma	.
.	.	.	.	4G/	Chi	[4b-\	vi-	[4dd\	vi-	.
=3	=3	=3	=3	=3	=3	=3	=3	=3	=3	.
2r	.	2g\	a-	2G/	a-	4b-\]	.	4dd\]	.	.
.	.	.	.	.	.	4b-\	vein	4ee\	vein	.
2D\	Chi	4f\	ma	2A/	ma	2a/	co-	2ff\	co-	.
.	.	[4d\	vi-	.	.	.	.	.	.	.
=4	=4	=4	=4	=4	=4	=4	=4	=4	=4	.
2G\	a-	4d\]	.	2B-\	vi-	2g/	re	4dd\	re	.
.	.	4e\	vein	.	.	.	.	4g/	vi-	.
4F\	ma	2f\	co-	4A/	ve	4c/	vi-	4a/	vein	.
[4D\	vi-	.	.	[4f\	vi-	4d/	vein	[4a/	co-	.
=5	=5	=5	=5	=5	=5	=5	=5	=5	=5	.
4D\]	.	4d\	re	4f\]	.	4a/	co-	8a/L]	.	.
.	.	.	.	.	.	.	.	8b-/J	.	.
4E\	vein	4G/	vi-	4e\	vein	4g/	re	2cc\	.	.
2F\	co-	4A/	vein-	4.c\	co-	[2f/	De	.	.	.
.	.	[4A/	co-	.	.	.	.	[4a/	re	.
.	.	.	.	8c\	re	.	.	.	.	.
=6	=6	=6	=6	=6	=6	=6	=6	=6	=6	.
2D\	re	4A/]	.	4d\	De	4f/]	.	4a/]	.	.
.	.	4A/	re	4f\	l'a-	4a/	l'a-	2dd\	De	.
4.A\	De	4r	.	2e\	ma-	2a/	ma-	.	.	.
.	.	[4A/	De	.	.	.	.	4cc#\	l'a-	.
8G\	.	.	.	.	.	.	.	.	.	.
=7	=7	=7	=7	=7	=7	=7	=7	=7	=7	.
4F#\	.	4A/]	.	1d\	to	4a/	.	2dd\	ma-	.
4G\	l'a-	4B-\	l'a-	.	.	2g/	.	.	.	.
2D\	ma-	2A/	ma-	.	.	.	.	2dd\	to	.
.	.	.	.	.	.	4f/	.	.	.	.
=8	=8	=8	=8	=8	=8	=8	=8	=8	=8	.
2.G\	to	2B-\	to	2r	.	1g/	to	4r	.	>
.	.	.	.	.	.	.	.	4dd\	Chi	<CON_5v_rep
.	.	4r	.	2d\	Chi	.	.	[2b-\	a-	.
4G\	Chi	4G/	Chi	.	.	.	.	.	.	.
=9	=9	=9	=9	=9	=9	=9	=9	=9	=9	.
2E-\	a-	2G/	a-	2g\	a-	2r	.	4b-\]	.	.
.	.	.	.	.	.	.	.	4cc\	ma	.
4D\	ma	4A/	ma	4f\	ma	2d/	Chi	[2dd\	vi-	.
[4G\	vi-	[4B-\	vi-	[4d\	vi-	.	.	.	.	.
=10	=10	=10	=10	=10	=10	=10	=10	=10	=10	.
4G\]	.	4B-\]	.	4d\]	.	2g/	a-	4dd\]	.	.
4G\	vein	4B-\	vein	4e\	vein	.	.	4g/	vein	.
[2D\	co-	[2A/	co-	4.f\	co-	4f/	ma	4.dd\	co-	.
.	.	.	.	.	.	[4d/	vi-	.	.	.
.	.	.	.	8g\	.	.	.	8ee\	.	.
=11	=11	=11	=11	=11	=11	=11	=11	=11	=11	.
4D\]	.	4A/]	.	2a\	.	4d/]	.	4ff\	.	.
4A\	re	4c#\	re	.	.	4e/	vein	4ee\	re	.
4.D\	De-	8d\L	De	4a\	re	4f/	co-	2dd\	De	.
.	.	8e\J	.	.	.	.	.	.	.	.
.	.	8f\L	.	[4A/	De	4f/	re	.	.	.
8E\	.	8g\J	.	.	.	.	.	.	.	.
=12	=12	=12	=12	=12	=12	=12	=12	=12	=12	.
4F\	.	4a\	.	4A/]	.	4f/	de	4cc\	l'a-	.
4G\	l'a-	4g\	l'a-	4B-\	l'a-	4d/	l'a-	2b-\	ma-	.
2F\	ma-	2c\	ma-	2c\	ma-	2f/	ma-	.	.	.
.	.	.	.	.	.	.	.	4a/	.	.
=13	=13	=13	=13	=13	=13	=13	=13	=13	=13	.
1BB-/	to	2d\	to	2B-\	to	2f/	to	1b-\	to	>
.	.	4r	.	4r	.	4r	.	.	.	.
.	.	[4d\	e	[4B-\	e	[4f/	e	.	.	<HOMlib_3v+CONlib_1v
=14	=14	=14	=14	=14	=14	=14	=14	=14	=14	.
1r	.	4d\]	.	4B-\]	.	8f/L]	.	2r	.	.
.	.	.	.	.	.	8g/J	si	.	.	.
.	.	4c\	si	4A/	si	4a/	pas-	.	.	.
.	.	[2Bn\	pas-	[2G/	pas-	4d/	ce	4r	.	.
.	.	.	.	.	.	[4g/	del	[4dd\	e	.
=15	=15	=15	=15	=15	=15	=15	=15	=15	=15	.
1r	.	4B\]	.	4G/]	.	4g/]	.	4dd\]	.	.
.	.	4c\	ce	4A/	ce	4e/	suo	4cc\	si	.
.	.	4d\	del	4G/	del	2g/	a-	2bn\	pas-	.
.	.	4d\	suoa-	4G/	suoa-	.	.	.	.	.
=16	=16	=16	=16	=16	=16	=16	=16	=16	=16	.
1r	.	2e\	mo-	2c\	mo-	2g/	mo-	2cc\	ce	.
.	.	4f\	re	2F/	re	4.a/	re	2cc\	del	.
.	.	[4f\	del	.	.	.	.	.	.	.
.	.	.	.	.	.	8b-\	del	.	.	.
=17	=17	=17	=17	=17	=17	=17	=17	=17	=17	.
1r	.	4f\]	.	4A/	del	4cc\	suo	4a/	suo	.
.	.	4d\	suoa-	4B-\	suoa-	4f/	a-	2dd\	a-	.
.	.	2e\	mo-	2A/	mo-	2a/	mo-	.	.	.
.	.	.	.	.	.	.	.	4cc\	mo-	.
=18	=18	=18	=18	=18	=18	=18	=18	=18	=18	.
2r	.	2f\	re	2d\	re	2a/	re	1dd\	re	>
[2B-\	e	4r	.	4r	.	4.f/	e	.	.	<imit_4v
.	.	[4f\	e	[4d\	e	.	.	.	.	.
.	.	.	.	.	.	8e/	si	.	.	.
=19	=19	=19	=19	=19	=19	=19	=19	=19	=19	.
4B-\]	.	8f\L]	.	4d\]	.	4d/	pas-	1r	.	.
.	.	8g\J	si	.	.	.	.	.	.	.
4A\	si	4a\	pas-	4c\	si	4e/	ce	.	.	.
2G\	pas-	2d\	ce	2Bn\	pas-	2g/	del	.	.	.
=20	=20	=20	=20	=20	=20	=20	=20	=20	=20	.
2C/	ce	2g\	del	2c\	ce	2e/	suo	1r	.	.
[2F\	del	4c\	suoa-	2A/	del	4.f/	a-	.	.	.
.	.	[4c\	mo-	.	.	.	.	.	.	.
.	.	.	.	.	.	8g/	mo-	.	.	.
=21	=21	=21	=21	=21	=21	=21	=21	=21	=21	.
4F\]	.	4c\]	.	4A/	suo	2a/	.	1r	.	.
4D\	suoa-	4f\	re	2d\	a-	.	.	.	.	.
2A\	mo-	4d\	del	.	.	2a/	re	.	.	.
.	.	4d\	suo	4c\	mo-	.	.	.	.	.
=22	=22	=22	=22	=22	=22	=22	=22	=22	=22	.
1D\	re	4.a\	a-	1d\	re	2r	.	2r	.	>
.	.	8g\	mo-	.	.	.	.	.	.	.
.	.	2f#\	.	.	.	2a/	Men-	2dd\	Men-	<ANTIF_2v
=23	=23	=23	=23	=23	=23	=23	=23	=23	=23	.
2r	.	2g\	re	2r	.	4b-\	tre	4dd\	tre	.
.	.	.	.	.	.	4b-\	la	4ee\	la	.
2D\	Men-	4r	.	2A/	Men-	2a/	fe-	2ff\	fe-	.
.	.	4d\	Men-	.	.	.	.	.	.	.
=24	=24	=24	=24	=24	=24	=24	=24	=24	=24	.
4G\	tre	4d\	tre	4B-\	tre	2g/	de	4dd\	de	.
4G\	la	4e\	la	4B-\	la	.	.	4g/	la	.
2F\	fe-	2f\	fe-	2A/	fe-	4r	.	2cc\	fe-	.
.	.	.	.	.	.	4c/	che	.	.	<<CON_1v+HOM_4v
=25	=25	=25	=25	=25	=25	=25	=25	=25	=25	.
4BB-/	de	4d\	de	4B-\	de	4f/	d'A-	4b-\	de	>
2E\	che	2G/	che	2B-\	che	2e-/	mor	4b-\	che	.
.	.	.	.	.	.	.	.	4g/	d'A-	.
4C/	d'A-	4G/	d'A-	4c\	d'A-	4e-/	&egrave;s-	[4g/	mor	.
=26	=26	=26	=26	=26	=26	=26	=26	=26	=26	.
4G\	mor	4B-\	mor	2.d\	mor	8d/L	cor-	4g/]	.	.
.	.	.	.	.	.	8B-/J	.	.	.	.
4G\	&egrave;s-	4G/	&egrave;s-	.	.	4b-\	.	4gg\	&egrave;s-	.
2D\	cor-	2A/	cor-	.	.	2a/	ta	2ff#\	cor-	.
.	.	.	.	4d\	&egrave;s-	.	.	.	.	.
=27	=27	=27	=27	=27	=27	=27	=27	=27	=27	.
1G\	ta	2Bn\	ta	2d\	cor-	2r	.	2gg\	ta	>>
.	.	2d\	Fi-	2Bn\	ta	2g/	Fi-	2dd\	Fi-	<ANTIF_5v
=28	=28	=28	=28	=28	=28	=28	=28	=28	=28	.
2r	.	4d\	da	1r	.	4a/	da	4ff\	da	.
.	.	4c#\	no-	.	.	4a/	no-	4ee\	no-	.
2B-\	Fi-	4d\	vel-	.	.	4f/	vel-	4dd\	vel-	.
.	.	4d\	la	.	.	4g/	la	4dd\	la	.
=29	=29	=29	=29	=29	=29	=29	=29	=29	=29	.
4A\	da	2e\	por-	2r	.	[1a/	por-	2cc#\	por-	.
4A\	no-	.	.	.	.	.	.	.	.	.
4d\	vel-	4f\	ta	2d\	Fi-	.	.	2dd\	ta	.
4D\	la	4f\	Fi-	.	.	.	.	.	.	.
=30	=30	=30	=30	=30	=30	=30	=30	=30	=30	.
2A\	por-	4e\	da	4d\	da	2a/]	.	2r	.	.
.	.	4e\	no-	4c#\	no-	.	.	.	.	.
2D\	ta	[2a\	vel-	4d\	vel-	2f#/	ta	2dd\	Fi-	.
.	.	.	.	4d\	la	.	.	.	.	.
=31	=31	=31	=31	=31	=31	=31	=31	=31	=31	.
2r	.	4a\]	.	2A/	por-	2r	.	4dd\	da	.
.	.	4a\	la	.	.	.	.	4cc#\	no-	.
2G\	Fi-	2d\	por-	4B-\	ta	2g/	Fi-	[2dd\	vel-	.
.	.	.	.	4B-\	Fi-	.	.	.	.	.
=32	=32	=32	=32	=32	=32	=32	=32	=32	=32	.
4G\	da	1d\	ta	4G/	da	4b-\	da	4dd\]	.	.
4F#\	no-	.	.	4A/	no-	4a/	no-	4dd\	la	.
4G\	vel-	.	.	4B-\	vel-	4g/	ve-	[2dd\	por-	.
4G\	la	.	.	4B-\	la	4g/	la	.	.	.
=33	=33	=33	=33	=33	=33	=33	=33	=33	=33	.
2D\	por-	2r	.	2A/	por-	2f#/	por-	4dd\]	.	.
.	.	.	.	.	.	.	.	4a/	.	.
2G\	ta	2d\	A	2G/	ta	4g/	ta	2bn\	.	>
.	.	.	.	.	.	4g/	A	.	.	<ANTIFlib_2v
=34	=34	=34	=34	=34	=34	=34	=34	=34	=34	.
4r	.	4e-\	l'u-	4r	.	4.g/	l'u-	4cc\	ta	.
4C/	A	4e-\	noe	4c\	A	.	.	4cc\	A	.
.	.	.	.	.	.	8a/	.	.	.	.
2BB-/	l'u-	2d\	l'al-	2F/	l'u-	[2b-\	.	4dd\	l'u-	.
.	.	.	.	.	.	.	.	4ff\	noe	.
=35	=35	=35	=35	=35	=35	=35	=35	=35	=35	.
2F\	noe	2c\	tro	4F/	noe	4b-\]	.	2ff\	l'al-	.
.	.	.	.	2f\	l'al-	4a/	noe	.	.	.
4BB-/	l'al-	4r	.	.	.	4b-\	l'al-	4dd\	tro	.
4C/	tro	4c\	e	4e-\	tro	4g/	tro	[4cc\	pet-	.
=36	=36	=36	=36	=36	=36	=36	=36	=36	=36	.
1G\	pet-	4d\	l'al-	1d\	pet-	1g/	pet-	4cc\]	.	.
.	.	4G/	tro	.	.	.	.	8b-/L	.	.
.	.	.	.	.	.	.	.	8a/J	.	.
.	.	2g\	pet-	.	.	.	.	2b-\	.	.
=37	=37	=37	=37	=37	=37	=37	=37	=37	=37	.
2C/	to	2e\	to	1c\	to	1g/	to	2cc\	to	>
4r	.	4r	.	.	.	.	.	4r	.	.
4C/	A	4e\	A	.	.	.	.	4cc\	A	<ANTIFlib_2v_rep
=38	=38	=38	=38	=38	=38	=38	=38	=38	=38	.
4D\	l'u-	4f\	l'u-	2r	.	2r	.	2.a/	l'u-	.
4F\	noe	4c\	noe	.	.	.	.	.	.	.
2F\	l'al-	[2f\	l'al-	2c\	A	4r	.	.	.	.
.	.	.	.	.	.	4a/	A	4cc\	noe	.
=39	=39	=39	=39	=39	=39	=39	=39	=39	=39	.
2.BB-/	tro	4f\]	.	4d\	l'u-	4b-\	l'u-	4.b-\	l'al-	.
.	.	4d\	tro	4f\	noe	4f/	noe	.	.	.
.	.	.	.	.	.	.	.	8cc\	.	.
.	.	2d\	pet-	2f\	l'al-	[2b-\	l'al-	4.dd\	.	.
[4B-\	pet-	.	.	.	.	.	.	.	.	.
.	.	.	.	.	.	.	.	8ee\	.	.
=40	=40	=40	=40	=40	=40	=40	=40	=40	=40	.
8B-\L]	.	2d\	to	4d\	tro	4b-\]	.	4ff\	.	.
8A\J	.	.	.	.	.	.	.	.	.	.
8B-\L	.	.	.	2g\	pet-	4b-\	tro	4dd\	tro	.
8c\J	.	.	.	.	.	.	.	.	.	.
2d\	.	4r	.	.	.	2a/	pet-	2dd\	pet-	.
.	.	4d\	Del	4f\	.	.	.	.	.	<<ANTIF_3v
=41	=41	=41	=41	=41	=41	=41	=41	=41	=41	.
2G\	to	4.Bn\	suo	2g\	to	2g/	to	1dd\	to	>
.	.	8c\	con-	.	.	.	.	.	.	.
2r	.	[2d\	cor-	4r	.	2f#/	De	.	.	.
.	.	.	.	4a\	Del	.	.	.	.	.
=42	=42	=42	=42	=42	=42	=42	=42	=42	=42	.
2r	.	4d\]	.	4.f#\	suo	4.a/	suo	2r	.	.
.	.	4d\	deaf-	.	.	.	.	.	.	.
.	.	.	.	8g\	con-	8g/	con-	.	.	.
2D\	Del	2d\	fet-	4a\	cor-	4f#/	cor-	2dd\	Del	.
.	.	.	.	4a\	deaf-	4f#/	deaf-	.	.	.
=43	=43	=43	=43	=43	=43	=43	=43	=43	=43	.
4.d\	suo	1G/	to	2.g\	fet-	2g/	fet-	4.bn\	suo	.
8c\	con-	.	.	.	.	.	.	8cc\	con-	.
4Bn\	cor-	.	.	.	.	2d/	to	4dd\	cor-	.
4B\	deaf-	.	.	4f\	.	.	.	4dd\	deaf-	.
=44	=44	=44	=44	=44	=44	=44	=44	=44	=44	.
2c\	fet-	2r	.	2e\	.	2r	.	2g/	fet-	.
4A\	to	4r	.	4e\	to	2a/	Del	4cc\	to	>>
4D\	Del	4d\	Del	4f#\	Del	.	.	4a/	Del	<HOM_5v
=45	=45	=45	=45	=45	=45	=45	=45	=45	=45	.
4.D\	suo	4.d\	suo	4.a\	suo	4.f#/	suo	4.dd\	suo	.
8G\	con-	8Bn\	con-	8g\	con-	8g/	con-	8dd\	con-	.
4D\	cor-	4d\	cor-	4f#\	cor-	2a/	cor-	4dd\	cor-	.
4d\	deaf-	4d\	deaf-	4f#\	deaf-	.	.	4dd\	deaf-	.
=46	=46	=46	=46	=46	=46	=46	=46	=46	=46	.
2A\	fet-	2e\	fet-	4a\	fet-	2a/	deaf-	2cc#\	fet-	.
.	.	.	.	4A/	to	.	.	.	.	.
2D\	to	2f#\	to	4r	.	[2a/	fet-	2dd\	to	>
.	.	.	.	[4d\	On-	.	.	.	.	<CON_5v+1trip
=47	=47	=47	=47	=47	=47	=47	=47	=47	=47	.
2r	.	4r	.	4d\]	.	4a/]	.	2r	.	.
.	.	2g\	On-	4G/	de	4bn\	to	.	.	.
4r	.	.	.	4c\	pi&ugrave;	4r	.	4r	.	.
[4G\	On-	4G/	de	[4g\	vol-	4b\	On-	[4dd\	On-	.
=48	=48	=48	=48	=48	=48	=48	=48	=48	=48	.
4G\]	.	4d\	pi&ugrave;	4g\]	.	4b-\	.	4dd\]	.	.
4C/	de	2c\	vol-	4g\	teav-	4cc\	de	4ee\	de	.
4F\	pi&ugrave;	.	.	[2f\	vie-	4a/	pi&ugrave;	4ff\	pi&ugrave;	.
[4BB-/	vol-	4B-\	teav-	.	.	[4b-\	vol-	[4dd\	vol-	.
=49	=49	=49	=49	=49	=49	=49	=49	=49	=49	.
4BB-/]	.	4.B-\	vie-	4f\]	.	8b-\L]	.	4dd\]	.	.
.	.	.	.	.	.	8b-\J	teav-	.	.	.
4E\	teav-	.	.	4g\	.	2g/	vie-	4b-\	teav-	.
.	.	8G/	.	.	.	.	.	.	.	.
2D\	vie-	2d\	.	2a\	.	.	.	2dd\	vie-	.
.	.	.	.	.	.	4f/	.	.	.	.
=50	=50	=50	=50	=50	=50	=50	=50	=50	=50	.
1G\	ne	2Bn\	ne	4d\	ne	2g/	ne	2dd\	ne	>
.	.	.	.	4d\	Che	.	.	.	.	<HOM_3v+imit_1v
.	.	4r	.	2g\	sen-	4r	.	4r	.	.
.	.	4B\	Che	.	.	4d/	Che	4dd\	Che	.
=51	=51	=51	=51	=51	=51	=51	=51	=51	=51	.
1r	.	4c\	sen-	4e\	za	4g/	sen-	4cc\	sen-	.
.	.	4d\	za	[4f\	fe-	4f/	za	4a/	za	.
.	.	2B-\	fe-	8f\L]	.	8d/L	fe-	2b-\	fe-	.
.	.	.	.	8e\J	.	8e/J	.	.	.	.
.	.	.	.	4d\	.	8f/L	.	.	.	.
.	.	.	.	.	.	8g/J	.	.	.	.
=52	=52	=52	=52	=52	=52	=52	=52	=52	=52	.
1r	.	4A/	deA-	4e\	deA-	4a/	.	4cc\	deA-	.
.	.	2G/	mor	2g\	mor	4b-\	deA-	2dd\	mor	.
.	.	.	.	.	.	4b-\	mor	.	.	.
.	.	4F/	non	4c\	non	4a/	non	4ff\	non	.
=53	=53	=53	=53	=53	=53	=53	=53	=53	=53	.
1r	.	4G/	si	4Bn\	si	4.g/	si	4dd\	si	.
.	.	4A/	man-	4c\	man-	.	.	4cc\	man-	.
.	.	.	.	.	.	8f#/	man-	.	.	.
.	.	2G/	tie-	2d\	tie-	2g/	tie-	2bn\	tie-	.
=54	=54	=54	=54	=54	=54	=54	=54	=54	=54	.
2r	.	4c\	ne	2e\	ne	4g/	ne	2cc\	ne	>
.	.	4A/	Che	.	.	4a/	Che	.	.	<HOMlib_5v
2D\	Che	[2A/	sen-	4r	.	[2a/	sen-	4r	.	.
.	.	.	.	4f\	Che	.	.	4dd\	Che	.
=55	=55	=55	=55	=55	=55	=55	=55	=55	=55	.
4A\	sen-	4A/]	.	4e\	sen-	4a/]	.	4cc\	sen-	.
4D\	za	4d\	za	4f\	za	4a/	za	4a/	za	.
2G\	fe-	4B-\	fe-	4d\	fe-	2g/	fe-	2b-\	fe-	.
.	.	4d\	deA-	4g\	deA-	.	.	.	.	.
=56	=56	=56	=56	=56	=56	=56	=56	=56	=56	.
4F\	deA-	2f\	mor	4c\	mor	4a/	deA-	4cc\	deA-	.
2BB-/	mor	.	.	4B-\	non	[4b-\	mor	2dd\	mor	.
.	.	4f\	non	4.d\	si-	8b-\L]	.	.	.	.
.	.	.	.	.	.	8b-\J	non	.	.	.
4B-\	non	[4f\	si	.	.	4b-\	si	4dd\	non	.
.	.	.	.	8B-\	.	.	.	.	.	.
=57	=57	=57	=57	=57	=57	=57	=57	=57	=57	.
4F\	si	4f\]	.	4c\	.	4a/	man-	4ff\	si	.
4G\	man-	4B-\	man-	4g\	man-	2g/	tie-	4dd\	man-	.
2D\	tie-	4A/	tie-	2a\	tie-	.	.	2dd\	tie-	.
.	.	4A/	ne	.	.	4f/	.	.	.	.
=58	=58	=58	=58	=58	=58	=58	=58	=58	=58	.
2G\	ne	2r	.	2d\	ne	2g/	ne	2bn\	ne	>
4r	.	2d\	On-	4r	.	4r	.	4r	.	.
[4G\	On-	.	.	[4d\	On-	[4g/	On-	[4b\	On-	<HOM_5v
=59	=59	=59	=59	=59	=59	=59	=59	=59	=59	.
4G\]	.	4G/	de	4d\]	.	4g/]	.	4b\]	.	.
4C/	de	4c\	pi&ugrave;	4e\	de	4g/	de	4cc\	de	.
4F\	pi&ugrave;	[2F/	vol-	4f\	pi&ugrave;	4a/	pi&ugrave;	4cc\	pi&ugrave;	.
[4BB-/	vol-	.	.	[4d\	vol-	[4b-/	vol-	[4dd\	vol-	.
=60	=60	=60	=60	=60	=60	=60	=60	=60	=60	.
4BB-/]	.	4F/]	.	4d\]	.	8b-/L]	.	4dd\]	.	.
.	.	.	.	.	.	8a/J	teav-	.	.	.
4C/	teav-	4c\	teav-	4G/	teav-	2g/	vien-	4ee-\	teav-	.
2D\	vien-	2A/	vien-	2d\	vien-	.	.	2dd\	vien-	.
.	.	.	.	.	.	4f/	.	.	.	.
=61	=61	=61	=61	=61	=61	=61	=61	=61	=61	.
1G\	ne	2.Bn\	ne	4d\	ne	2g/	ne	2dd\	ne	>
.	.	.	.	4d\	Che	.	.	.	.	<HOMlib_4v+CON_1v
.	.	.	.	2g\	sen-	4r	.	4r	.	.
.	.	4B\	Che	.	.	4d/	Che	4dd\	Che	.
=62	=62	=62	=62	=62	=62	=62	=62	=62	=62	.
2r	.	4c\	sen-	4e\	za	4g/	sen-	4cc\	sen-	.
.	.	4d\	za	2f\	fe-	4f/	za	4a/	za	.
4r	.	2B-\	fe-	.	.	2d/	fe-	2b-\	fe-	.
4G\	Che	.	.	4g\	deA-	.	.	.	.	.
=63	=63	=63	=63	=63	=63	=63	=63	=63	=63	.
4F\	sen-	2A/	de	1a\	mor	2f/	deA-	4cc\	deA-	.
4D\	za	.	.	.	.	.	.	2dd\	mor	.
2A\	fe-	4r	.	.	.	2e/	mor	.	.	.
.	.	4A/	A-	.	.	.	.	4cc\	non	.
=64	=64	=64	=64	=64	=64	=64	=64	=64	=64	.
4D\	deA-	2A/	mor	2a\	non	4d/	non	2.ff\	si	.
2F\	mor	.	.	.	.	4c/	si	.	.	.
.	.	4A/	non	4A/	si	4c/	man-	.	.	.
4C/	non	4G/	si	4c\	man-	[4g/	tie-	4ee\	man-	.
=65	=65	=65	=65	=65	=65	=65	=65	=65	=65	.
4G\	si	4G/	man-	4.Bn\	tie-	4g/]	.	1dd\	tie-	.
4G\	man-	2g\	tie-	.	.	4d/	.	.	.	.
.	.	.	.	8c\	.	.	.	.	.	.
2D\	tie-	.	.	2d\	.	2a/	.	.	.	.
.	.	4f\	ne	.	.	.	.	.	.	.
=66	=66	=66	=66	=66	=66	=66	=66	=66	=66	.
1G\	ne	4g\	Che	2d\	ne	2bn\	ne	2dd\	ne	><ANTIF_3v
.	.	4g\	sen-	.	.	.	.	.	.	.
.	.	2g\	za	4r	.	4r	.	4r	.	.
.	.	.	.	4d\	Che	4b\	Che	4dd\	Che	.
=67	=67	=67	=67	=67	=67	=67	=67	=67	=67	.
2r	.	4e\	fe-	4c\	sen-	2cc\	sen-	4gg\	sen-	.
.	.	2f\	deA-	4A/	za	.	.	4ff\	za	.
4r	.	.	.	2B-\	fe-	2b-\	za	2dd\	fe-	.
4G\	Che	4g\	mor-	.	.	.	.	.	.	.
=68	=68	=68	=68	=68	=68	=68	=68	=68	=68	.
4F\	sen-	8a\L	.	4c\	deA-	2.a/	fe-	2ff\	deA-	.
.	.	8g\J	.	.	.	.	.	.	.	.
4D\	za	8f\L	.	[4d\	mor-	.	.	.	.	.
.	.	8d\J	.	.	.	.	.	.	.	.
2A\	fe-	4e\	.	8d\L]	.	.	.	2ee\	mor	.
.	.	.	.	8c#\J	.	.	.	.	.	.
.	.	4e\	non	4c#\	.	4a/	deA-	.	.	.
=69	=69	=69	=69	=69	=69	=69	=69	=69	=69	.
4D\	deA-	2.f\	si	4d\	non	2a/	mor	4dd\	non	.
2F\	mor	.	.	[4A/	si-	.	.	2cc\	si	.
.	.	.	.	8A\L]	.	4a/	non	.	.	.
.	.	.	.	8B-\J	.	.	.	.	.	.
4C/	non	4e\	man-	4c\	.	[4g/	si	4cc\	man-	.
=70	=70	=70	=70	=70	=70	=70	=70	=70	=70	.
4G\	si	1d\	tie-	4G/	man-	4g/]	.	4.bn\	tie-	.
4G\	man-	.	.	2g\	tie-	4d/	man-	.	.	.
.	.	.	.	.	.	.	.	8cc\	.	.
2D\	tie-	.	.	.	.	2a/	tie-	2dd\	.	.
.	.	.	.	4f\	.	.	.	.	.	.
=71	=71	=71	=71	=71	=71	=71	=71	=71	=71	.
1G\	ne.	1Bn\	ne.	1g\	ne.	1d/	ne.	1dd\	ne.	>
==	==	==	==	==	==	==	==	==	==	==
*-	*-	*-	*-	*-	*-	*-	*-	*-	*-	*-